X: 21572
T: The BUD OF THE ROSE
C: Shield.
%R: air, reel
B: W. Hamilton "Universal Tune-Book" Vol. 2 Glasgow 1846 p.157 #2
S: http://s3-eu-west-1.amazonaws.com/itma.dl.printmaterial/book_pdfs/hamiltonvol2web.pdf
Z: 2016 John Chambers <jc:trillian.mit.edu>
N: The "D.C." at the end should be "D.S.", of course.
M: C
L: 1/8
K: G
% - - - - - - - - - - - - - - - - - - - - - - - - -
G !segno!|\
(B>c)dd (dg)(fe) | dB AG E2DC |\
B,DGA cBAG | e2(d>c) B2dg |\
fdcA cBcd | (ec) AG (FA) (dc) |
B2B>A G2zG | c2c>B A2zc |\
(Bde)f Hg2 GB | (d>e) dF "^Fine."G2z H|]\
B |\
g2fe ^d2dd | (eB) AG F2FF |
(G>A) GE e2 (d/c/)(B/A/) | (G>A) BB, HE2 zF |\
(GB) dd d2zB | cegg g2zg |\
fdBe dB Gc | cBAG HD2 "^D.C. al fine."(d>c) |]
% - - - - - - - - - - - - - - - - - - - - - - - - -

%%sep 1 1 500
%%sep 1 1 500

